X:170
T:Maid of the Mill. VWMLa.170
%%VWML:Anon2-3049-p105-0
F:http://www.vwml.org/record/Anon2/3049/p105
S:Anon. MS, late 18thC, Vaughan Williams Mem. Library
N:Only 4 bars are shown in MS..
O:England;Yorkshire
Z:vmp/efdss.Simon Wilson. Reviewed PJH 2008.
M:6/8
L:1/8
Q:3/8=110
K:A
"^NB"E|EAA AcA|GAB e2(c/A/)|FFF FGE|A3- A2E|\
EAA AcA|GAB e2(c/A/)|FFF FGE|A3- A2:|
|:E|Eee e>fe|edc d2c|BBc d2f|(A3 G2)E|\
FGA d2B|GAB e2(c/A/)|FFF FGE|A3- A2:|
